X: 16
T: Pour passer temps
N: Derived from Jap3016-Pour_passer_temps.krn
C: Jean Japart
%%abc-version 2.0
%%abcx-abcm2ps-target-version 5.9.1 (29 Sep 2008)
%%abc-creator hum2abc beta
%%abcx-conversion-date 2019/02/16 20:40:05
%%abc-edited-by Jesse Rodin
%%abc-edited-by Chris Gage 09-18-2013
%%abcx-initial-encoding-date 2013/10/17/
%%humdrum-veritas 3288708578
%%humdrum-veritas-data 1147933001
%%linebreak <none>
%%barnumbers 0
L: 1/4
M: 2/1
Q: 1/2=120
%%staves [1 2 3 4]
V: 1 clef=treble
V: 2 clef=treble-8
V: 3 clef=treble-8
V: 4 clef=bass
K: F
[V:1] D8 | 
[V:2] z8 | 
[V:3] B4B4 | 
[V:4] G,8 | 
[V:1] E4C4 | 
[V:2] z8 | 
[V:3] c6A2 | 
[V:4] C,4F,4 | 
[V:1] E4F4 | 
[V:2] B4B4 | 
[V:3] G4F4 | 
[V:4] E,4D,4 | 
[V:1] E4C2D2- | 
[V:2] c6A2 | 
[V:3] G4z4 | 
[V:4] C,3B,,A,,2F,,2 | 
[V:1] DCB,2A,4 | 
[V:2] G4^F4 | 
[V:3] d4d4 | 
[V:4] B,,3C,D,4 | 
[V:1] B,4G,4 | 
[V:2] G4z4 | 
[V:3] d4e4 | 
[V:4] z2G,4F,E, | 
[V:1] A,8 | 
[V:2] d4d4 | 
[V:3] f4f4 | 
[V:4] D,6C,2 | 
[V:1] G,4z2G2 | 
[V:2] d4e4 | 
[V:3] g6fe | 
[V:4] B,,4G,,4 | 
[V:1] A4A4 | 
[V:2] f4f4 | 
[V:3] d8 | 
[V:4] D,8 | 
[V:1] B4G4- | 
[V:2] g6fe | 
[V:3] z8 | 
[V:4] B,,4C,4 | 
[V:1] G2F3ED2 | 
[V:2] d8 | 
[V:3] B4B4 | 
[V:4] D,8 | 
[V:1] E6G2- | 
[V:2] z8 | 
[V:3] c6B2 | 
[V:4] C,8 | 
[V:1] G2A2B4 | 
[V:2] B4B4 | 
[V:3] G4G4 | 
[V:4] z8 | 
[V:1] A2A3GF2- | 
[V:2] c6A2 | 
[V:3] F8 | 
[V:4] z4A,,4 | 
[V:1] F2EDE4 | 
[V:2] G4G4 | 
[V:3] z8 | 
[V:4] B,,4C,4 | 
[V:1] F8 | 
[V:2] F8 | 
[V:3] z8 | 
[V:4] D,8 | 
[V:1] z4D4 | 
[V:2] z8 | 
[V:3] B4B4 | 
[V:4] G,,8 | 
[V:1] E3FG4- | 
[V:2] z8 | 
[V:3] G4G4 | 
[V:4] C,6B,,A,, | 
[V:1] G2A2B4- | 
[V:2] B4B4 | 
[V:3] d4d4 | 
[V:4] G,,4G,4- | 
[V:1] B2A2G2FE | 
[V:2] G4G4 | 
[V:3] B6G2 | 
[V:4] G,2F,2E,4 | 
[V:1] F2G2A4- | 
[V:2] d4d4 | 
[V:3] A8 | 
[V:4] D,8 | 
[V:1] A2D2G4- | 
[V:2] B6G2 | 
[V:3] G8 | 
[V:4] _E,8 | 
[V:1] G2^FEF4 | 
[V:2] A8 | 
[V:3] z8 | 
[V:4] D,8 | 
[V:1] G3AB2G2- | 
[V:2] G8 | 
[V:3] z8 | 
[V:4] _E,6F,2 | 
[V:1] G2FED2G2 | 
[V:2] z8 | 
[V:3] B4B4 | 
[V:4] G,6F,E, | 
[V:1] A2F3GA2 | 
[V:2] z8 | 
[V:3] A4d4 | 
[V:4] F,2D,3E,F,2 | 
[V:1] B2G4^F2 | 
[V:2] z8 | 
[V:3] d4c4 | 
[V:4] G,2B,2A,4 | 
[V:1] G8 | 
[V:2] B4B4 | 
[V:3] d4B4 | 
[V:4] G,4z2G,2- | 
[V:1] z8 | 
[V:2] A4d4 | 
[V:3] c4B4 | 
[V:4] G,2F,2G,4 | 
[V:1] z8 | 
[V:2] d4c4 | 
[V:3] A4G4 | 
[V:4] D,2F,2E,2D,C, | 
[V:1] z4D4 | 
[V:2] d4B4 | 
[V:3] G4F4 | 
[V:4] B,,3C,D,4 | 
[V:1] E2C2D2E2 | 
[V:2] c4B4 | 
[V:3] G8 | 
[V:4] C,3B,,G,,2G,2 | 
[V:1] F4B,4 | 
[V:2] A4G4 | 
[V:3] z8 | 
[V:4] F,2E,D,E,D,C,B,, | 
[V:1] C8 | 
[V:2] A2^F4E^F | 
[V:3] z8 | 
[V:4] A,,8 | 
[V:1] B,6C2 | 
[V:2] G8 | 
[V:3] z8 | 
[V:4] G,,8- | 
[V:1] D2G,4D2 | 
[V:2] B4B4 | 
[V:3] z8 | 
[V:4] G,,8 | 
[V:1] E2F3GA2- | 
[V:2] A4d4 | 
[V:3] z8 | 
[V:4] z8 | 
[V:1] AGF2E4 | 
[V:2] d4c4 | 
[V:3] z8 | 
[V:4] z8 | 
[V:1] D6CD | 
[V:2] d4B4 | 
[V:3] B4B4 | 
[V:4] z8 | 
[V:1] E3FG3E | 
[V:2] c4B4 | 
[V:3] A4d4 | 
[V:4] z4G,,4 | 
[V:1] F4G4 | 
[V:2] A4G4- | 
[V:3] d4c4 | 
[V:4] D,4E,4 | 
[V:1] F6EF | 
[V:2] G2FEF4 | 
[V:3] d4B4 | 
[V:4] D,8 | 
[V:1] E4D4 | 
[V:2] G8 | 
[V:3] c4B4 | 
[V:4] C,4G,,4 | 
[V:1] C4B,4 | 
[V:2] z8 | 
[V:3] A4G4 | 
[V:4] A,,4B,,2G,,2 | 
[V:1] A,8 | 
[V:2] z8 | 
[V:3] A2^F4E^F | 
[V:4] D,8 | 
[V:1] G,4z4 | 
[V:2] z8 | 
[V:3] G8 | 
[V:4] G,,4C,4 | 
[V:1] D4D4 | 
[V:2] B2B2A2G2 | 
[V:3] z8 | 
[V:4] B,,2D,3C,B,,2 | 
[V:1] C4B,2D2- | 
[V:2] G2^F2G2z2 | 
[V:3] z4B2B2 | 
[V:4] A,,4G,,4 | 
[V:1] D2CB,A,4 | 
[V:2] z4d2d2 | 
[V:3] A2G2G2^F2 | 
[V:4] z2G,,2D,4 | 
[V:1] G,4z4 | 
[V:2] d2e2f2f2 | 
[V:3] G2z2d2d2 | 
[V:4] B,,2C,2D,4 | 
[V:1] B4A2A2 | 
[V:2] g3f/e/d4 | 
[V:3] d2e2f2f2 | 
[V:4] G,,4z2D,2 | 
[V:1] B3AF4 | 
[V:2] z4B2B2 | 
[V:3] g3f/e/d4 | 
[V:4] B,,3C,D,4 | 
[V:1] E2G3AB2 | 
[V:2] c3B/A/G2G2 | 
[V:3] z4B2B2 | 
[V:4] C,4z2G,,2 | 
[V:1] A2GFE3D | 
[V:2] F4z4 | 
[V:3] c3B/A/G2G2 | 
[V:4] A,,2B,,2C,4 | 
[V:1] F2D3CB,A, | 
[V:2] z4B2B2 | 
[V:3] F4z4 | 
[V:4] D,2B,,3A,,G,,2- | 
[V:1] B,2G,4G2- | 
[V:2] G2G2d2d2 | 
[V:3] z4B2B2 | 
[V:4] G,,2G,3F,_E,D, | 
[V:1] G2FEFGA2- | 
[V:2] B3GA4 | 
[V:3] G2G2d2d2 | 
[V:4] _E,4D,4 | 
[V:1] ADG4^F2 | 
[V:2] G4z4 | 
[V:3] B3GA4 | 
[V:4] _E,4D,4 | 
[V:1] G8- | 
[V:2] G4d4 | 
[V:3] G8- | 
[V:4] G,,8- | 
[V:1] G8- |]  
[V:2] B8 |]  
[V:3] G8 |]  
[V:4] G,,8 |]  



